public/flags/5.svg

<svg width="40" height="40" viewBox="0 0 40 40" fill="none" xmlns="http://www.w3.org/2000/svg">
<circle cx="20" cy="20" r="20" fill="white"/>
<g clip-path="url(#clip0_101_14220)">
<path d="M20.0829 38.0954C30.0288 38.0954 38.0915 30.0327 38.0915 20.0868C38.0915 10.1409 30.0288 2.07812 20.0829 2.07812C10.137 2.07812 2.07422 10.1409 2.07422 20.0868C2.07422 30.0327 10.137 38.0954 20.0829 38.0954Z" fill="#F0F0F0"/>
<path d="M7.34882 32.8212C0.316018 25.7883 0.316018 14.3859 7.34882 7.35303C7.34833 7.3538 17.734 20.0871 17.734 20.0871L7.34882 32.8212Z" fill="#070127"/>
<path d="M17.7343 20.0864L4.46303 11.1182C4.05157 11.8334 3.68873 12.5799 3.37695 13.3526L10.0957 20.0865L3.37716 26.8207C3.68866 27.5928 4.05115 28.3389 4.46233 29.0536L17.7343 20.0864Z" fill="#FFDA44"/>
<path d="M37.939 17.7379H17.7334L7.34857 7.35303C6.22951 8.4721 5.25725 9.7377 4.46262 11.1187L13.4134 20.0868L4.46191 29.0539C5.25655 30.4352 6.22922 31.7012 7.34857 32.8206L17.7334 22.4358H37.939C38.0391 21.6669 38.0915 20.8829 38.0915 20.0868C38.0915 19.2907 38.0391 18.5068 37.939 17.7379Z" fill="#6DA544"/>
<path d="M9.11865 34.3729C12.1554 36.7072 15.9567 38.0959 20.083 38.0959C28.4035 38.0959 35.4047 32.4526 37.4712 24.7852H18.7065L9.11865 34.3729Z" fill="#0052B4"/>
<path d="M37.4712 15.3888C35.4047 7.72138 28.4035 2.07812 20.083 2.07812C15.9567 2.07812 12.1554 3.46683 9.11865 5.80106L18.7064 15.3888H37.4712Z" fill="#D80027"/>
</g>
<defs>
<clipPath id="clip0_101_14220">
<rect width="36.0173" height="36.0173" fill="white" transform="translate(2.07422 2.07812)"/>
</clipPath>
</defs>
</svg>

<svg xmlns="http://www.w3.org/2000/svg" width="40" height="40" fill="none" viewBox="0 0 40 40"><circle cx="20" cy="20" r="20" fill="#fff"/><g clip-path="url(#a)"><path fill="#f0f0f0" d="M20.083 38.095c9.946 0 18.009-8.062 18.009-18.008S30.029 2.078 20.082 2.078c-9.945 0-18.008 8.063-18.008 18.009s8.063 18.008 18.009 18.008"/><path fill="#070127" d="M7.349 32.821c-7.033-7.033-7.033-18.435 0-25.468l10.385 12.734z"/><path fill="#ffda44" d="M17.734 20.086 4.463 11.118a18 18 0 0 0-1.086 2.235l6.719 6.734-6.719 6.734q.468 1.16 1.085 2.233z"/><path fill="#6da544" d="M37.939 17.738H17.733L7.35 7.353a18 18 0 0 0-2.886 3.766l8.95 8.968-8.951 8.967a18 18 0 0 0 2.887 3.767l10.384-10.385H37.94a18.2 18.2 0 0 0 0-4.698"/><path fill="#0052b4" d="M9.119 34.373a17.93 17.93 0 0 0 10.964 3.723c8.32 0 15.322-5.643 17.388-13.31H18.707z"/><path fill="#d80027" d="M37.471 15.389c-2.066-7.668-9.067-13.31-17.388-13.31A17.93 17.93 0 0 0 9.119 5.8l9.587 9.588z"/></g><defs><clipPath id="a"><path fill="#fff" d="M2.074 2.078h36.017v36.017H2.074z"/></clipPath></defs></svg>
